src/assets/lgbtq.svg

<svg xmlns="http://www.w3.org/2000/svg" xmlns:xlink="http://www.w3.org/1999/xlink" width="500" zoomAndPan="magnify" viewBox="0 0 375 374.999991" height="500" preserveAspectRatio="xMidYMid meet" version="1.0"><defs><clipPath id="e5bdf4a81b"><path d="M 0 0.308594 L 345 0.308594 L 345 76.902344 L 0 76.902344 Z M 0 0.308594 " clip-rule="nonzero"/></clipPath><clipPath id="40ab1c738e"><path d="M 176.265625 256.59375 C 133.199219 257.140625 97.835938 222.695312 97.289062 179.648438 C 96.738281 136.605469 131.207031 101.269531 174.277344 100.71875 C 217.347656 100.167969 252.710938 134.617188 253.257812 177.664062 C 253.804688 220.707031 219.335938 256.046875 176.265625 256.59375 Z M 342.347656 1.160156 L 342.34375 0.773438 L 243.25 2.039062 L 243.628906 31.699219 L 292.898438 31.070312 L 241.898438 87.328125 C 222.832031 73.414062 199.261719 65.320312 173.828125 65.644531 C 148.667969 65.964844 125.53125 74.480469 106.921875 88.609375 L 98.90625 80.800781 L 124.011719 55.0625 L 102.371094 33.976562 L 77.265625 59.71875 L 52.296875 35.394531 L 76.324219 35.085938 L 75.9375 4.882812 L 1.445312 5.835938 L 1.445312 6.117188 L 0.1875 6.136719 L 1.136719 80.582031 L 31.359375 80.199219 L 31.058594 56.886719 L 56.164062 81.34375 L 33.273438 104.816406 L 54.914062 125.898438 L 77.808594 102.425781 L 85.5 109.917969 C 70.589844 129.34375 61.855469 153.722656 62.195312 180.097656 C 62.929688 237.570312 106.460938 284.472656 162.113281 290.917969 L 162.625 331.375 L 114.375 331.996094 L 114.757812 362.195312 L 163.015625 361.578125 L 163.652344 411.75 L 193.871094 411.367188 L 193.230469 361.195312 L 237.585938 360.628906 L 237.203125 330.429688 L 192.847656 330.992188 L 192.328125 290.394531 C 247.289062 282.089844 289.078125 234.332031 288.351562 177.21875 C 288.019531 151.105469 278.847656 127.179688 263.726562 108.238281 L 314.671875 52.035156 L 315.292969 100.554688 L 344.96875 100.175781 L 343.710938 1.140625 Z M 342.347656 1.160156 " clip-rule="nonzero"/></clipPath><clipPath id="9e8db712c3"><path d="M 0 64 L 345 64 L 345 144.867188 L 0 144.867188 Z M 0 64 " clip-rule="nonzero"/></clipPath><clipPath id="7708a1be3a"><path d="M 176.265625 256.59375 C 133.199219 257.140625 97.835938 222.695312 97.289062 179.648438 C 96.738281 136.605469 131.207031 101.269531 174.277344 100.71875 C 217.347656 100.167969 252.710938 134.617188 253.257812 177.664062 C 253.804688 220.707031 219.335938 256.046875 176.265625 256.59375 Z M 342.347656 1.160156 L 342.34375 0.773438 L 243.25 2.039062 L 243.628906 31.699219 L 292.898438 31.070312 L 241.898438 87.328125 C 222.832031 73.414062 199.261719 65.320312 173.828125 65.644531 C 148.667969 65.964844 125.53125 74.480469 106.921875 88.609375 L 98.90625 80.800781 L 124.011719 55.0625 L 102.371094 33.976562 L 77.265625 59.71875 L 52.296875 35.394531 L 76.324219 35.085938 L 75.9375 4.882812 L 1.445312 5.835938 L 1.445312 6.117188 L 0.1875 6.136719 L 1.136719 80.582031 L 31.359375 80.199219 L 31.058594 56.886719 L 56.164062 81.34375 L 33.273438 104.816406 L 54.914062 125.898438 L 77.808594 102.425781 L 85.5 109.917969 C 70.589844 129.34375 61.855469 153.722656 62.195312 180.097656 C 62.929688 237.570312 106.460938 284.472656 162.113281 290.917969 L 162.625 331.375 L 114.375 331.996094 L 114.757812 362.195312 L 163.015625 361.578125 L 163.652344 411.75 L 193.871094 411.367188 L 193.230469 361.195312 L 237.585938 360.628906 L 237.203125 330.429688 L 192.847656 330.992188 L 192.328125 290.394531 C 247.289062 282.089844 289.078125 234.332031 288.351562 177.21875 C 288.019531 151.105469 278.847656 127.179688 263.726562 108.238281 L 314.671875 52.035156 L 315.292969 100.554688 L 344.96875 100.175781 L 343.710938 1.140625 Z M 342.347656 1.160156 " clip-rule="nonzero"/></clipPath><clipPath id="9b093bb102"><path d="M 0 132 L 345 132 L 345 212.832031 L 0 212.832031 Z M 0 132 " clip-rule="nonzero"/></clipPath><clipPath id="9a8aaf5c4a"><path d="M 176.265625 256.59375 C 133.199219 257.140625 97.835938 222.695312 97.289062 179.648438 C 96.738281 136.605469 131.207031 101.269531 174.277344 100.71875 C 217.347656 100.167969 252.710938 134.617188 253.257812 177.664062 C 253.804688 220.707031 219.335938 256.046875 176.265625 256.59375 Z M 342.347656 1.160156 L 342.34375 0.773438 L 243.25 2.039062 L 243.628906 31.699219 L 292.898438 31.070312 L 241.898438 87.328125 C 222.832031 73.414062 199.261719 65.320312 173.828125 65.644531 C 148.667969 65.964844 125.53125 74.480469 106.921875 88.609375 L 98.90625 80.800781 L 124.011719 55.0625 L 102.371094 33.976562 L 77.265625 59.71875 L 52.296875 35.394531 L 76.324219 35.085938 L 75.9375 4.882812 L 1.445312 5.835938 L 1.445312 6.117188 L 0.1875 6.136719 L 1.136719 80.582031 L 31.359375 80.199219 L 31.058594 56.886719 L 56.164062 81.34375 L 33.273438 104.816406 L 54.914062 125.898438 L 77.808594 102.425781 L 85.5 109.917969 C 70.589844 129.34375 61.855469 153.722656 62.195312 180.097656 C 62.929688 237.570312 106.460938 284.472656 162.113281 290.917969 L 162.625 331.375 L 114.375 331.996094 L 114.757812 362.195312 L 163.015625 361.578125 L 163.652344 411.75 L 193.871094 411.367188 L 193.230469 361.195312 L 237.585938 360.628906 L 237.203125 330.429688 L 192.847656 330.992188 L 192.328125 290.394531 C 247.289062 282.089844 289.078125 234.332031 288.351562 177.21875 C 288.019531 151.105469 278.847656 127.179688 263.726562 108.238281 L 314.671875 52.035156 L 315.292969 100.554688 L 344.96875 100.175781 L 343.710938 1.140625 Z M 342.347656 1.160156 " clip-rule="nonzero"/></clipPath><clipPath id="0660e002d1"><path d="M 0 201 L 345 201 L 345 281.875 L 0 281.875 Z M 0 201 " clip-rule="nonzero"/></clipPath><clipPath id="873e89f76a"><path d="M 176.265625 256.59375 C 133.199219 257.140625 97.835938 222.695312 97.289062 179.648438 C 96.738281 136.605469 131.207031 101.269531 174.277344 100.71875 C 217.347656 100.167969 252.710938 134.617188 253.257812 177.664062 C 253.804688 220.707031 219.335938 256.046875 176.265625 256.59375 Z M 342.347656 1.160156 L 342.34375 0.773438 L 243.25 2.039062 L 243.628906 31.699219 L 292.898438 31.070312 L 241.898438 87.328125 C 222.832031 73.414062 199.261719 65.320312 173.828125 65.644531 C 148.667969 65.964844 125.53125 74.480469 106.921875 88.609375 L 98.90625 80.800781 L 124.011719 55.0625 L 102.371094 33.976562 L 77.265625 59.71875 L 52.296875 35.394531 L 76.324219 35.085938 L 75.9375 4.882812 L 1.445312 5.835938 L 1.445312 6.117188 L 0.1875 6.136719 L 1.136719 80.582031 L 31.359375 80.199219 L 31.058594 56.886719 L 56.164062 81.34375 L 33.273438 104.816406 L 54.914062 125.898438 L 77.808594 102.425781 L 85.5 109.917969 C 70.589844 129.34375 61.855469 153.722656 62.195312 180.097656 C 62.929688 237.570312 106.460938 284.472656 162.113281 290.917969 L 162.625 331.375 L 114.375 331.996094 L 114.757812 362.195312 L 163.015625 361.578125 L 163.652344 411.75 L 193.871094 411.367188 L 193.230469 361.195312 L 237.585938 360.628906 L 237.203125 330.429688 L 192.847656 330.992188 L 192.328125 290.394531 C 247.289062 282.089844 289.078125 234.332031 288.351562 177.21875 C 288.019531 151.105469 278.847656 127.179688 263.726562 108.238281 L 314.671875 52.035156 L 315.292969 100.554688 L 344.96875 100.175781 L 343.710938 1.140625 Z M 342.347656 1.160156 " clip-rule="nonzero"/></clipPath><clipPath id="0b21f8f81f"><path d="M 0 269 L 345 269 L 345 348.757812 L 0 348.757812 Z M 0 269 " clip-rule="nonzero"/></clipPath><clipPath id="1592036501"><path d="M 176.265625 256.59375 C 133.199219 257.140625 97.835938 222.695312 97.289062 179.648438 C 96.738281 136.605469 131.207031 101.269531 174.277344 100.71875 C 217.347656 100.167969 252.710938 134.617188 253.257812 177.664062 C 253.804688 220.707031 219.335938 256.046875 176.265625 256.59375 Z M 342.347656 1.160156 L 342.34375 0.773438 L 243.25 2.039062 L 243.628906 31.699219 L 292.898438 31.070312 L 241.898438 87.328125 C 222.832031 73.414062 199.261719 65.320312 173.828125 65.644531 C 148.667969 65.964844 125.53125 74.480469 106.921875 88.609375 L 98.90625 80.800781 L 124.011719 55.0625 L 102.371094 33.976562 L 77.265625 59.71875 L 52.296875 35.394531 L 76.324219 35.085938 L 75.9375 4.882812 L 1.445312 5.835938 L 1.445312 6.117188 L 0.1875 6.136719 L 1.136719 80.582031 L 31.359375 80.199219 L 31.058594 56.886719 L 56.164062 81.34375 L 33.273438 104.816406 L 54.914062 125.898438 L 77.808594 102.425781 L 85.5 109.917969 C 70.589844 129.34375 61.855469 153.722656 62.195312 180.097656 C 62.929688 237.570312 106.460938 284.472656 162.113281 290.917969 L 162.625 331.375 L 114.375 331.996094 L 114.757812 362.195312 L 163.015625 361.578125 L 163.652344 411.75 L 193.871094 411.367188 L 193.230469 361.195312 L 237.585938 360.628906 L 237.203125 330.429688 L 192.847656 330.992188 L 192.328125 290.394531 C 247.289062 282.089844 289.078125 234.332031 288.351562 177.21875 C 288.019531 151.105469 278.847656 127.179688 263.726562 108.238281 L 314.671875 52.035156 L 315.292969 100.554688 L 344.96875 100.175781 L 343.710938 1.140625 Z M 342.347656 1.160156 " clip-rule="nonzero"/></clipPath><clipPath id="6f8f0f5128"><path d="M 0 338 L 345 338 L 345 375 L 0 375 Z M 0 338 " clip-rule="nonzero"/></clipPath><clipPath id="ae4471db77"><path d="M 176.265625 256.59375 C 133.199219 257.140625 97.835938 222.695312 97.289062 179.648438 C 96.738281 136.605469 131.207031 101.269531 174.277344 100.71875 C 217.347656 100.167969 252.710938 134.617188 253.257812 177.664062 C 253.804688 220.707031 219.335938 256.046875 176.265625 256.59375 Z M 342.347656 1.160156 L 342.34375 0.773438 L 243.25 2.039062 L 243.628906 31.699219 L 292.898438 31.070312 L 241.898438 87.328125 C 222.832031 73.414062 199.261719 65.320312 173.828125 65.644531 C 148.667969 65.964844 125.53125 74.480469 106.921875 88.609375 L 98.90625 80.800781 L 124.011719 55.0625 L 102.371094 33.976562 L 77.265625 59.71875 L 52.296875 35.394531 L 76.324219 35.085938 L 75.9375 4.882812 L 1.445312 5.835938 L 1.445312 6.117188 L 0.1875 6.136719 L 1.136719 80.582031 L 31.359375 80.199219 L 31.058594 56.886719 L 56.164062 81.34375 L 33.273438 104.816406 L 54.914062 125.898438 L 77.808594 102.425781 L 85.5 109.917969 C 70.589844 129.34375 61.855469 153.722656 62.195312 180.097656 C 62.929688 237.570312 106.460938 284.472656 162.113281 290.917969 L 162.625 331.375 L 114.375 331.996094 L 114.757812 362.195312 L 163.015625 361.578125 L 163.652344 411.75 L 193.871094 411.367188 L 193.230469 361.195312 L 237.585938 360.628906 L 237.203125 330.429688 L 192.847656 330.992188 L 192.328125 290.394531 C 247.289062 282.089844 289.078125 234.332031 288.351562 177.21875 C 288.019531 151.105469 278.847656 127.179688 263.726562 108.238281 L 314.671875 52.035156 L 315.292969 100.554688 L 344.96875 100.175781 L 343.710938 1.140625 Z M 342.347656 1.160156 " clip-rule="nonzero"/></clipPath><clipPath id="4a331f9666"><path d="M 0 0 L 345 0 L 345 375 L 0 375 Z M 0 0 " clip-rule="nonzero"/></clipPath></defs><g clip-path="url(#e5bdf4a81b)"><g clip-path="url(#40ab1c738e)"><path fill="#f14949" d="M 601.425781 66.339844 L -218.882812 76.792969 L -219.761719 7.789062 L 600.542969 -2.667969 L 601.425781 66.339844 " fill-opacity="1" fill-rule="nonzero"/></g></g><g clip-path="url(#9e8db712c3)"><g clip-path="url(#7708a1be3a)"><path fill="#f67a3e" d="M 602.285156 133.96875 L -218.015625 144.417969 L -218.898438 75.414062 L 601.410156 64.960938 L 602.285156 133.96875 " fill-opacity="1" fill-rule="nonzero"/></g></g><g clip-path="url(#9b093bb102)"><g clip-path="url(#9a8aaf5c4a)"><path fill="#fbdd31" d="M 603.148438 201.597656 L -217.15625 212.046875 L -218.035156 143.042969 L 602.269531 132.585938 L 603.148438 201.597656 " fill-opacity="1" fill-rule="nonzero"/></g></g><g clip-path="url(#0660e002d1)"><g clip-path="url(#873e89f76a)"><path fill="#00a85d" d="M 604.03125 270.601562 L -216.277344 281.054688 L -217.15625 212.046875 L 603.148438 201.597656 L 604.03125 270.601562 " fill-opacity="1" fill-rule="nonzero"/></g></g><g clip-path="url(#0b21f8f81f)"><g clip-path="url(#1592036501)"><path fill="#5174b7" d="M 604.890625 338.226562 L -215.410156 348.683594 L -216.292969 279.675781 L 604.015625 269.222656 L 604.890625 338.226562 " fill-opacity="1" fill-rule="nonzero"/></g></g><g clip-path="url(#6f8f0f5128)"><g clip-path="url(#ae4471db77)"><path fill="#7e569c" d="M 605.773438 407.238281 L -214.535156 417.6875 L -215.410156 348.683594 L 604.890625 338.226562 L 605.773438 407.238281 " fill-opacity="1" fill-rule="nonzero"/></g></g><g clip-path="url(#4a331f9666)"><path stroke-linecap="butt" transform="matrix(0.107946, 0, 0, -0.10788, -0.274865, 412.214157)" fill="none" stroke-linejoin="miter" d="M 1635.456832 1442.535009 C 1236.493124 1437.465711 908.890543 1756.759113 903.824338 2155.785342 C 898.721945 2554.775363 1218.03766 2882.32448 1617.037555 2887.429988 C 2016.03745 2892.535496 2343.640031 2573.205885 2348.706236 2174.179655 C 2353.772442 1775.189635 2034.456727 1447.604308 1635.456832 1442.535009 Z M 3174.027351 3810.295824 L 3173.991164 3813.880543 L 2255.99467 3802.148737 L 2259.504827 3527.211699 L 2715.933784 3533.041392 L 2243.473904 3011.555389 C 2066.844257 3140.532833 1848.490786 3215.558454 1612.876029 3212.553084 C 1379.794374 3209.583923 1165.457681 3130.6477 993.061934 2999.678746 L 918.805832 3072.06109 L 1151.380866 3310.644015 L 950.903865 3506.10169 L 718.32883 3267.482557 L 487.020348 3492.957723 L 709.607719 3495.818256 L 706.025188 3775.788384 L 15.935581 3766.95332 L 15.935581 3764.346252 L 4.283308 3764.165206 L 13.076794 3074.08881 L 293.057039 3077.637319 L 290.270626 3293.734282 L 522.84566 3067.028001 L 310.78876 2849.446457 L 511.265761 2654.02499 L 723.358849 2871.606534 L 794.611415 2802.157141 C 656.484932 2622.088408 575.570388 2396.106312 578.718673 2151.621276 C 585.521864 1618.874187 988.791847 1184.109401 1504.350663 1124.364095 L 1509.091184 749.344616 L 1062.107082 743.587341 L 1065.653426 463.653422 L 1512.709902 469.374488 L 1518.608413 4.302537 L 1798.552472 7.851047 L 1792.617774 472.922997 L 2203.523253 478.173342 L 2199.976909 758.10726 L 1789.07143 752.893125 L 1784.258534 1129.216138 C 2293.412219 1206.19706 2680.542717 1648.891677 2673.811901 2178.307513 C 2670.73599 2420.330318 2585.768481 2642.148348 2445.687891 2817.72713 L 2917.64115 3338.706204 L 2923.394912 2888.950778 L 3198.308952 2892.463078 L 3186.656678 3810.476871 Z M 3174.027351 3810.295824 " stroke="#040506" stroke-width="8.481" stroke-opacity="1" stroke-miterlimit="10"/></g></svg>

<svg xmlns="http://www.w3.org/2000/svg" width="500" height="500" viewBox="0 0 375 375"><style>.B{clip-rule:nonzero}</style><defs><clipPath id="A"><path d="M0 .309h345v76.594H0zm0 0" class="B"/></clipPath><clipPath id="B"><path d="M176.266 256.594c-43.066.547-78.43-33.898-78.977-76.945s33.918-78.379 76.988-78.93 78.434 33.898 78.98 76.945-33.922 78.383-76.992 78.93zM342.348 1.16l-.004-.387-99.094 1.266.379 29.66 49.27-.629-51 56.258c-19.066-13.914-42.637-22.008-68.07-21.684-25.16.32-48.297 8.836-66.906 22.965L98.907 80.8l25.105-25.738-21.641-21.086-25.105 25.742-24.969-24.324 24.027-.309-.387-30.203-74.492.953v.281l-1.258.02.949 74.445 30.223-.383-.301-23.312 25.105 24.457-22.891 23.473 21.641 21.082 22.895-23.473 7.691 7.492c-14.91 19.426-23.645 43.805-23.305 70.18.734 57.473 44.266 104.375 99.918 110.82l.512 40.457-48.25.621.383 30.199 48.258-.617.637 50.172 30.219-.383-.641-50.172 44.355-.566-.383-30.199-44.355.563-.52-40.598c54.961-8.305 96.75-56.062 96.023-113.176a112.47 112.47 0 0 0-24.625-68.98l50.945-56.203.621 48.52 29.676-.379-1.258-99.035zm0 0" class="B"/></clipPath><clipPath id="C"><path d="M0 64h345v80.867H0zm0 0" class="B"/></clipPath><clipPath id="D"><path d="M176.266 256.594c-43.066.547-78.43-33.898-78.977-76.945s33.918-78.379 76.988-78.93 78.434 33.898 78.98 76.945-33.922 78.383-76.992 78.93zM342.348 1.16l-.004-.387-99.094 1.266.379 29.66 49.27-.629-51 56.258c-19.066-13.914-42.637-22.008-68.07-21.684-25.16.32-48.297 8.836-66.906 22.965L98.907 80.8l25.105-25.738-21.641-21.086-25.105 25.742-24.969-24.324 24.027-.309-.387-30.203-74.492.953v.281l-1.258.02.949 74.445 30.223-.383-.301-23.312 25.105 24.457-22.891 23.473 21.641 21.082 22.895-23.473 7.691 7.492c-14.91 19.426-23.645 43.805-23.305 70.18.734 57.473 44.266 104.375 99.918 110.82l.512 40.457-48.25.621.383 30.199 48.258-.617.637 50.172 30.219-.383-.641-50.172 44.355-.566-.383-30.199-44.355.563-.52-40.598c54.961-8.305 96.75-56.062 96.023-113.176a112.47 112.47 0 0 0-24.625-68.98l50.945-56.203.621 48.52 29.676-.379-1.258-99.035zm0 0" class="B"/></clipPath><clipPath id="E"><path d="M0 132h345v80.832H0zm0 0" class="B"/></clipPath><clipPath id="F"><path d="M176.266 256.594c-43.066.547-78.43-33.898-78.977-76.945s33.918-78.379 76.988-78.93 78.434 33.898 78.98 76.945-33.922 78.383-76.992 78.93zM342.348 1.16l-.004-.387-99.094 1.266.379 29.66 49.27-.629-51 56.258c-19.066-13.914-42.637-22.008-68.07-21.684-25.16.32-48.297 8.836-66.906 22.965L98.907 80.8l25.105-25.738-21.641-21.086-25.105 25.742-24.969-24.324 24.027-.309-.387-30.203-74.492.953v.281l-1.258.02.949 74.445 30.223-.383-.301-23.312 25.105 24.457-22.891 23.473 21.641 21.082 22.895-23.473 7.691 7.492c-14.91 19.426-23.645 43.805-23.305 70.18.734 57.473 44.266 104.375 99.918 110.82l.512 40.457-48.25.621.383 30.199 48.258-.617.637 50.172 30.219-.383-.641-50.172 44.355-.566-.383-30.199-44.355.563-.52-40.598c54.961-8.305 96.75-56.062 96.023-113.176a112.47 112.47 0 0 0-24.625-68.98l50.945-56.203.621 48.52 29.676-.379-1.258-99.035zm0 0" class="B"/></clipPath><clipPath id="G"><path d="M0 201h345v80.875H0zm0 0" class="B"/></clipPath><clipPath id="H"><path d="M176.266 256.594c-43.066.547-78.43-33.898-78.977-76.945s33.918-78.379 76.988-78.93 78.434 33.898 78.98 76.945-33.922 78.383-76.992 78.93zM342.348 1.16l-.004-.387-99.094 1.266.379 29.66 49.27-.629-51 56.258c-19.066-13.914-42.637-22.008-68.07-21.684-25.16.32-48.297 8.836-66.906 22.965L98.907 80.8l25.105-25.738-21.641-21.086-25.105 25.742-24.969-24.324 24.027-.309-.387-30.203-74.492.953v.281l-1.258.02.949 74.445 30.223-.383-.301-23.312 25.105 24.457-22.891 23.473 21.641 21.082 22.895-23.473 7.691 7.492c-14.91 19.426-23.645 43.805-23.305 70.18.734 57.473 44.266 104.375 99.918 110.82l.512 40.457-48.25.621.383 30.199 48.258-.617.637 50.172 30.219-.383-.641-50.172 44.355-.566-.383-30.199-44.355.563-.52-40.598c54.961-8.305 96.75-56.062 96.023-113.176a112.47 112.47 0 0 0-24.625-68.98l50.945-56.203.621 48.52 29.676-.379-1.258-99.035zm0 0" class="B"/></clipPath><clipPath id="I"><path d="M0 269h345v79.758H0zm0 0" class="B"/></clipPath><clipPath id="J"><path d="M176.266 256.594c-43.066.547-78.43-33.898-78.977-76.945s33.918-78.379 76.988-78.93 78.434 33.898 78.98 76.945-33.922 78.383-76.992 78.93zM342.348 1.16l-.004-.387-99.094 1.266.379 29.66 49.27-.629-51 56.258c-19.066-13.914-42.637-22.008-68.07-21.684-25.16.32-48.297 8.836-66.906 22.965L98.907 80.8l25.105-25.738-21.641-21.086-25.105 25.742-24.969-24.324 24.027-.309-.387-30.203-74.492.953v.281l-1.258.02.949 74.445 30.223-.383-.301-23.312 25.105 24.457-22.891 23.473 21.641 21.082 22.895-23.473 7.691 7.492c-14.91 19.426-23.645 43.805-23.305 70.18.734 57.473 44.266 104.375 99.918 110.82l.512 40.457-48.25.621.383 30.199 48.258-.617.637 50.172 30.219-.383-.641-50.172 44.355-.566-.383-30.199-44.355.563-.52-40.598c54.961-8.305 96.75-56.062 96.023-113.176a112.47 112.47 0 0 0-24.625-68.98l50.945-56.203.621 48.52 29.676-.379-1.258-99.035zm0 0" class="B"/></clipPath><clipPath id="K"><path d="M0 338h345v37H0zm0 0" class="B"/></clipPath><clipPath id="L"><path d="M176.266 256.594c-43.066.547-78.43-33.898-78.977-76.945s33.918-78.379 76.988-78.93 78.434 33.898 78.98 76.945-33.922 78.383-76.992 78.93zM342.348 1.16l-.004-.387-99.094 1.266.379 29.66 49.27-.629-51 56.258c-19.066-13.914-42.637-22.008-68.07-21.684-25.16.32-48.297 8.836-66.906 22.965L98.907 80.8l25.105-25.738-21.641-21.086-25.105 25.742-24.969-24.324 24.027-.309-.387-30.203-74.492.953v.281l-1.258.02.949 74.445 30.223-.383-.301-23.312 25.105 24.457-22.891 23.473 21.641 21.082 22.895-23.473 7.691 7.492c-14.91 19.426-23.645 43.805-23.305 70.18.734 57.473 44.266 104.375 99.918 110.82l.512 40.457-48.25.621.383 30.199 48.258-.617.637 50.172 30.219-.383-.641-50.172 44.355-.566-.383-30.199-44.355.563-.52-40.598c54.961-8.305 96.75-56.062 96.023-113.176a112.47 112.47 0 0 0-24.625-68.98l50.945-56.203.621 48.52 29.676-.379-1.258-99.035zm0 0" class="B"/></clipPath><clipPath id="M"><path d="M0 0h345v375H0zm0 0" class="B"/></clipPath></defs><g clip-path="url(#A)"><g clip-path="url(#B)"><path fill="#f14949" d="m601.426 66.34-820.309 10.453-.879-69.004L600.543-2.668z"/></g></g><g clip-path="url(#C)"><g clip-path="url(#D)"><path fill="#f67a3e" d="m602.285 133.969-820.301 10.449-.883-69.004L601.41 64.961z"/></g></g><g clip-path="url(#E)"><g clip-path="url(#F)"><path fill="#fbdd31" d="m603.148 201.598-820.305 10.449-.879-69.004 820.305-10.457z"/></g></g><g clip-path="url(#G)"><g clip-path="url(#H)"><path fill="#00a85d" d="m604.031 270.602-820.309 10.453-.879-69.008 820.305-10.449z"/></g></g><g clip-path="url(#I)"><g clip-path="url(#J)"><path fill="#5174b7" d="m604.891 338.227-820.301 10.457-.883-69.008 820.309-10.453z"/></g></g><g clip-path="url(#K)"><g clip-path="url(#L)"><path fill="#7e569c" d="m605.773 407.238-820.309 10.449-.875-69.004 820.301-10.457z"/></g></g><g clip-path="url(#M)"><path fill="none" stroke="#040506" stroke-miterlimit="10" stroke-width=".915" d="M176.266 256.593c-43.067.547-78.43-33.898-78.977-76.945s33.918-78.379 76.989-78.93 78.434 33.898 78.981 76.945-33.922 78.383-76.992 78.93zM342.349 1.159l-.004-.387-99.094 1.266.379 29.66 49.27-.629-51 56.258c-19.066-13.914-42.637-22.008-68.071-21.684-25.16.32-48.297 8.836-66.906 22.965L98.907 80.8l25.106-25.738-21.641-21.086-25.106 25.742-24.969-24.324 24.027-.309-.387-30.203-74.492.953v.281l-1.258.02.949 74.445 30.223-.383-.301-23.313 25.106 24.457-22.891 23.473 21.641 21.082 22.895-23.473 7.691 7.492c-14.91 19.426-23.645 43.805-23.305 70.18.734 57.473 44.266 104.375 99.918 110.821l.512 40.457-48.25.621.383 30.199 48.258-.617.637 50.172 30.219-.383-.641-50.172 44.356-.566-.383-30.199-44.356.563-.52-40.598c54.961-8.305 96.75-56.063 96.024-113.176-.332-26.109-9.504-50.039-24.625-68.981l50.945-56.203.621 48.52 29.676-.379-1.258-99.035zm0 0"/></g></svg>
